packages/crayons-core/src/components/icon/icon-assets/icons/note-template.svg

<?xml version="1.0" encoding="UTF-8"?>
<svg width="14px" height="16px" viewBox="0 0 14 16" version="1.1" xmlns="http://www.w3.org/2000/svg" xmlns:xlink="http://www.w3.org/1999/xlink">
    <!-- Generator: Sketch 52.6 (67491) - http://www.bohemiancoding.com/sketch -->
    <title>icon/note-template</title>
    <desc>Created with Sketch.</desc>
    <g id="Icons-✅" stroke="none" stroke-width="1" fill="none" fill-rule="evenodd">
        <g id="Icons" transform="translate(-655.000000, -1464.000000)" fill="currentColor">
            <g id="icon/note-template" transform="translate(655.000000, 1464.000000)">
                <g id="note-template">
                    <path d="M11.3,0 C12.7911688,9.13077564e-17 14,1.20883118 14,2.7 L14,13.3 C14,14.7911688 12.7911688,16 11.3,16 L2.7,16 C1.20883118,16 2.22044605e-16,14.7911688 0,13.3 L0,2.7 C2.22044605e-16,1.20883118 1.20883118,-9.13077564e-17 2.7,0 L11.3,0 Z M12.6,13.3 L12.6,2.7 C12.6,1.98202983 12.0179702,1.4 11.3,1.4 L2.7,1.4 C1.98202983,1.4 1.4,1.98202983 1.4,2.7 L1.4,13.3 C1.4,13.6447814 1.53696389,13.9754415 1.78076118,14.2192388 C2.02455848,14.4630361 2.35521856,14.6 2.7,14.6 L11.3,14.6 C12.0179702,14.6 12.6,14.0179702 12.6,13.3 Z M10.55,7.34 C10.9365993,7.34 11.25,7.65340068 11.25,8.04 C11.25,8.42659932 10.9365993,8.74 10.55,8.74 L3.45,8.74 C3.06340068,8.74 2.75,8.42659932 2.75,8.04 C2.75,7.65340068 3.06340068,7.34 3.45,7.34 L10.55,7.34 Z M10.55,11 C10.8000859,11 11.0311748,11.1334192 11.1562178,11.35 C11.2812608,11.5665807 11.2812608,11.8334193 11.1562178,12.05 C11.0311748,12.2665808 10.8000859,12.4 10.55,12.4 L3.45,12.4 C3.06340068,12.4 2.75,12.0865993 2.75,11.7 C2.75,11.3134007 3.06340068,11 3.45,11 L10.55,11 Z M10.55,3.69 C10.9365993,3.69 11.25,4.00340068 11.25,4.39 C11.25,4.77659932 10.9365993,5.09 10.55,5.09 L3.45,5.09 C3.06340068,5.09 2.75,4.77659932 2.75,4.39 C2.75,4.00340068 3.06340068,3.69 3.45,3.69 L10.55,3.69 Z" id="Combined-Shape"></path>
                </g>
            </g>
        </g>
    </g>
</svg>

<svg viewBox="0 0 14 16"><path d="M11.3 0A2.7 2.7 0 0 1 14 2.7v10.6a2.7 2.7 0 0 1-2.7 2.7H2.7A2.7 2.7 0 0 1 0 13.3V2.7A2.7 2.7 0 0 1 2.7 0h8.6zm1.3 13.3V2.7a1.3 1.3 0 0 0-1.3-1.3H2.7a1.3 1.3 0 0 0-1.3 1.3v10.6a1.3 1.3 0 0 0 1.3 1.3h8.6a1.3 1.3 0 0 0 1.3-1.3zm-2.05-5.96a.7.7 0 0 1 0 1.4h-7.1a.7.7 0 0 1 0-1.4h7.1zm0 3.66a.7.7 0 1 1 0 1.4h-7.1a.7.7 0 0 1 0-1.4h7.1zm0-7.31a.7.7 0 0 1 0 1.4h-7.1a.7.7 0 0 1 0-1.4h7.1z" fill="currentColor" fill-rule="evenodd"/></svg>
